X:473
T:Mooncoin
M:6/8
L:1/8
K:D
e/d/|:"A"cBA AEA|AEA "G"Bcd|"A"cBA Ace|"Em"eBG "G"Bcd|\
"A"cBA AEA|AEA "G"Bcd|"A"Ace gfe|"G"dBG Bcd:|
|:"A"cde efg|"D"f/g/af "Em"ged|"A"cde dfg|"D"f/g/aA "G"Bcd|\
"A"cde efg|"D"afd "Bm"bfd|"A"afd gec|"G"dBG B[cC][dD]:|
|:"A"dBA Aaf|ecA "G"Bcd|"A"cBA gfe|"G"dBG Bcd|\
"A"cBA Aaa|Agg "D"Aff|"A"Aee efg|"G"dBG Bcd:|
